X:1
L:1/4
Q:1/4=72
M:3/8
V:1
V:2 clef=bass 
K:C
[V:1] B/ z/4 D/4c/4B/4 | A/ z/4 B/4c/4d/4 | e/>G/f/4e/4 | d/>F/e/4d/4 |
[V:2] E,,/4E,/4^G,/4 z3/4 | A,,/4E,/4A,/4 z3/4 | C,/4G,/4C/4 z3/4 | G,,/4G,/4B,/4 z3/4 |
